X:251
T: Rogara Duff
T: R\'ogaire Dubh (Black Rogue)
N: O'Farrell's Pocket Companion v.3 (Sky ed. p.119)
N: "Irish"
M: 6/8
L: 1/8
R: jig
Q: 320
K: G
B| gfe edB| gfg GAB| gfe edB| dBA A2B|
gfe edB| gfg a2b| gfg e/f/ge| dBA A2 :|
B| d>e d/B/ dBB| gfg GAB| d2B e2B| dBA A2B|
d>e d/B/ dBB| gfg a2b| gfg e/f/ge| dBA A2 :|
